X: 3
T:Walking In My Sleep
% Nottingham Music Database
S:Old Time, via PR
M:4/4
L:1/4
K:G
"G"G,/2A,/2B,/2C/2 D/2G/2B/2d/2|"G"B2 -B/2d/2B/2A/2|"G"G2 [e2g2]|\
"D7"[d3f3]d/2B/2|
"D7"A/2G/2F/2A/2 D/2E/2D/2E/2|"C"c3/2d/2 cA|"G"B/2A/2G/2B/2 "D7"A/2G/2F/2A/2|\
"G"G3z::
"G"g/2b/2g/2e/2 d/2g/2e/2f/2|g/2f/2g/2b/2 g/2e/2g/2b/2|\
"G"g/2e/2d/2c/2 B/2A/2G/2D/2|"D7"FA3|
f/2ab/2 a3/2e/2|"D7"f/2e/2d/2f/2 e/2f/2e/2f/2|g/2e/2d/2c/2 B/2d/2A/2F/2|\
"G"[G4B4]:|<end>
<start>
